X: 1
T: Pokarekare Ana
O:trad M\=aori
M:C
L:1/8
F:http://crash.ihug.co.nz/~dexy/music/kiwi.abc 2009-11-29
K:D
A2  "A7"ff ee \
|| "D"d4 f4- | "D7"f2 A2 dd cc | "G"B4  e4- | "Em"e2 BB ee dd \
| "A"c4  e4- | "A7"e2 AA BB cc | "D"d4-"G"d4- |
d2 d2 "D7"e2 f2  \
|| "G"g4-g4- | g2 B2  d2 g2  | "D"f4-f4- | f2 d2 de f2  \
| "A"e4-e4- | "A7"ec cc B2 A2  | "D"d4-"G"d4- | "D"d2  |]

%%sep 5 1 500

